**kern	**kern
*part1	*part1
*staff2	*staff1
*I"Piano	*
*clefF4	*clefG2
*k[b-e-]	*k[b-e-]
=1	=1
2.C	8GL
.	8c
.	8e-
.	8g
.	8c
.	8e-J
=	=
2.D	8GL
.	8d
.	8f
.	8g
.	8Bn
.	8fJ
=	=
[2.E-	8GL
.	8c
.	8e-
.	8g
.	8c
.	8e-J
=	=
2.E-]	8GL
.	8c
.	8e-
.	8g
.	8c
.	8e-J
=	=
[2.EE-	8GL
.	8c
.	8e-
.	8g
.	8c
.	8e-J
=	=
2.EE-]	8GL
.	8c
.	8e-
.	8g
.	8c
.	8e-J
=	=
2.E-	8GL
.	8B-
.	8e-
.	8g
.	8B-
.	8e-J
=	=
2.D	8F#XL
.	8d
.	8f#X
.	8a
.	8d
.	8f#J
=	=
2.FF#X	8AL
.	8d
.	8f#X
.	8a
.	8d
.	8f#J
=	=
*-	*-
!!!system-decoration: {(s1,s2)}
